packages/foundations/assets/icons/functional/images/maps/location_arrow_filled.svg

<svg xmlns="http://www.w3.org/2000/svg" width="32" height="32" fill="none"><path fill="#1A1C1F" fill-rule="evenodd" d="M27.413 3.459c-.334.112-.165.036-6.916 3.093-9.014 4.083-14.292 6.49-16.182 7.382-.659.311-.841.473-.986.879-.098.275-.093.744.011 1.048.11.325.561.796.85.89.162.052 1.45.075 5.579.098 2.953.017 5.389.051 5.413.075.025.025.058 2.401.075 5.28l.031 5.236.123.282a1.505 1.505 0 0 0 2.085.725c.376-.205.525-.416.962-1.361 2.238-4.841 8.454-18.449 9.734-21.312.392-.874.554-1.298.553-1.44a1 1 0 0 0-.417-.788c-.277-.184-.549-.21-.915-.087"/></svg>

<svg width="32" height="32" viewBox="0 0 32 32" fill="none" xmlns="http://www.w3.org/2000/svg"><path d="M27.413 3.459 C 27.079 3.571,27.248 3.495,20.497 6.552 C 11.483 10.635,6.205 13.042,4.315 13.934 C 3.656 14.245,3.474 14.407,3.329 14.813 C 3.231 15.088,3.236 15.557,3.340 15.861 C 3.450 16.186,3.901 16.657,4.190 16.751 C 4.352 16.803,5.640 16.826,9.769 16.849 C 12.722 16.866,15.158 16.900,15.182 16.924 C 15.207 16.949,15.240 19.325,15.257 22.204 L 15.288 27.440 15.411 27.722 C 15.763 28.524,16.733 28.862,17.496 28.447 C 17.872 28.242,18.021 28.031,18.458 27.086 C 20.696 22.245,26.912 8.637,28.192 5.774 C 28.584 4.900,28.746 4.476,28.745 4.334 C 28.744 4.030,28.573 3.708,28.328 3.546 C 28.051 3.362,27.779 3.336,27.413 3.459 " fill="#1A1C1F" stroke="none" fill-rule="evenodd"></path></svg>
